src/22/actions/mail-mark-junk.svg

<svg xmlns="http://www.w3.org/2000/svg" viewBox="0 0 22 22">
  <defs id="defs3051">
    <style type="text/css" id="current-color-scheme">
      .ColorScheme-Text {
        color:#5d656b;
      }
      </style>
  </defs>
 <path 
     style="fill:currentColor;fill-opacity:1;stroke:none" 
     d="M 1 3 L 1 4 L 1 12 L 1 18 L 1 18.414062 L 1 19 L 2 19 L 8 19 L 14 19 L 14 18 L 8 18 L 2 18 L 2 17.414062 L 2.4628906 16.951172 L 8.7304688 10.683594 L 10.183594 12.134766 L 10.998047 12.949219 L 11 12.949219 L 11.816406 12.134766 L 13.269531 10.683594 L 14.585938 12 L 16 12 L 13.976562 9.9765625 L 19.728516 4.2226562 L 19.951172 4 L 20 4 L 20 4.2226562 L 20 12 L 21 12 L 21 3 L 20.951172 3 L 20 3 L 19.537109 3 L 2.4628906 3 L 2 3 L 1 3 z M 2 4 L 2.0488281 4 L 2.2714844 4.2226562 L 8.0234375 9.9765625 L 2 16 L 2 12 L 2 4.2226562 L 2 4 z M 3.4628906 4 L 18.537109 4 L 11 11.537109 L 3.4628906 4 z "
     class="ColorScheme-Text"
     />
    <path
       style="fill:#da4453;fill-opacity:1;stroke:none"
       d="M 18 13 C 16.338005 13 15 14.338005 15 16 C 15 17.661995 16.338005 19 18 19 C 19.661995 19 21 17.661995 21 16 C 21 14.338005 19.661995 13 18 13 z M 18 14 C 18.371625 14 18.714197 14.106065 19.011719 14.28125 L 16.28125 17.011719 C 16.106065 16.714197 16 16.371625 16 16 C 16 14.892003 16.892003 14 18 14 z M 19.71875 14.988281 C 19.893935 15.285803 20 15.628375 20 16 C 20 17.107997 19.107997 18 18 18 C 17.628375 18 17.285803 17.893935 16.988281 17.71875 L 19.71875 14.988281 z "
        />
</svg>

<svg xmlns="http://www.w3.org/2000/svg" viewBox="0 0 22 22"><path d="M1 3v16h13v-1H2v-.586l.463-.463 6.267-6.267 1.454 1.45.814.815H11l.816-.814 1.454-1.451L14.586 12H16l-2.023-2.023 5.752-5.754L19.95 4H20v8h1V3H1zm1 1h.049l.222.223 5.752 5.754L2 16V4zm1.463 0h15.074L11 11.537 3.463 4z" fill="currentColor" color="#5d656b"/><path d="M18 13c-1.662 0-3 1.338-3 3s1.338 3 3 3 3-1.338 3-3-1.338-3-3-3zm0 1c.372 0 .714.106 1.012.281l-2.73 2.73A1.983 1.983 0 0 1 16 16c0-1.108.892-2 2-2zm1.719.988A1.996 1.996 0 0 1 18 18c-.372 0-.714-.106-1.012-.281l2.73-2.73z" fill="#da4453"/></svg>
